X:1
T: Miss Amelia Eliphant Gask
C:
R:Strathspey
Q: 128
K:D
M:4/4
L:1/16
|:B2|AF3 F3D E3D B,4|AF3 F3A B3c d3B|AF3 F3D E3D E3F|D3B, A,3B, D6 B2|
AF3 F3D E3D B,4|AF3 F3A B3c d3B|AF3 F3D E3D E3F|D3B, A,3B, D6 f2|
defg a3g fd3 d3f|a3d f3d fe3 e3f|defg a3g fd3 d3f|d3B AB3 d6 f2|
defg a3g fd3 d3f|a3d f3d fe3 e3f|defg a3g fd3 d3f|dcBA Bdce d6:|
